imgs/footer-logo.svg

<svg width="150" height="48" viewBox="0 0 150 48" fill="none" xmlns="http://www.w3.org/2000/svg">
<path d="M69.6293 26.6844H53.1632C52.4147 26.6844 51.8477 27.3413 51.9838 28.0662C52.0065 28.2247 52.0291 28.3833 52.0518 28.5419C52.1652 29.1761 52.3467 29.7877 52.5961 30.3994C52.9817 31.3281 53.5941 32.1436 54.4333 32.8685C55.2498 33.5933 56.4065 33.9331 57.8807 33.9331C59.355 33.9331 60.489 33.5707 61.3282 32.8685C61.9859 32.3021 62.4849 31.6679 62.8705 30.9883C63.0746 30.6259 63.4828 30.3994 63.8911 30.3994H68.4953C69.3344 30.3994 69.9015 31.2375 69.6293 32.0077C69.4252 32.5966 69.1757 33.1629 68.8808 33.6613C68.3592 34.59 67.7922 35.4055 67.1571 36.0851C66.522 36.7646 65.8643 37.3309 65.1385 37.784C64.4128 38.237 63.7323 38.5995 63.0519 38.8939C61.3962 39.5282 59.6725 39.868 57.8354 39.868C55.4312 39.8227 53.2992 39.3243 51.4394 38.3729C50.6456 37.9425 49.8745 37.3989 49.1033 36.742C48.3322 36.0851 47.6518 35.2469 47.0621 34.2502C46.4724 33.2535 45.9961 32.053 45.6332 30.6485C45.2703 29.2441 45.0889 27.6358 45.0889 25.7557C45.0889 23.8982 45.2703 22.2672 45.6332 20.8628C45.9961 19.4583 46.4724 18.2578 47.0621 17.2384C47.6518 16.2191 48.3322 15.3809 49.1033 14.7014C49.8745 14.0218 50.6456 13.4782 51.4394 13.0478C53.2766 12.0511 55.3859 11.5301 57.7673 11.4395C57.8127 11.4395 57.8581 11.4395 57.9034 11.4395C59.8539 11.5301 61.6684 11.9378 63.3694 12.6627C64.0952 12.9798 64.821 13.4102 65.5468 13.9312C66.2726 14.4522 66.953 15.0865 67.588 15.8566C68.2231 16.6268 68.7674 17.5329 69.2437 18.5976C69.72 19.6622 70.0829 20.8854 70.287 22.2672C70.3551 22.8109 70.4231 23.3545 70.4685 23.9208C70.5138 24.4871 70.5592 25.0987 70.5592 25.7557C70.5819 25.7103 70.718 26.6844 69.6293 26.6844ZM61.7818 22.2219C62.6437 22.2219 63.256 21.3158 62.8705 20.5456C62.8705 20.5456 62.8705 20.523 62.8478 20.523C62.5756 19.9567 62.2127 19.4357 61.7364 18.96C61.2601 18.5069 60.7158 18.1219 60.0808 17.85C59.4457 17.5782 58.6746 17.4423 57.8354 17.4423C56.9735 17.4423 56.225 17.5782 55.59 17.85C54.9549 18.1219 54.3879 18.4843 53.9343 18.96C53.458 19.4357 53.0951 19.934 52.8003 20.523V20.5456C52.4147 21.3385 53.0271 22.2446 53.8889 22.2446H61.7818V22.2219Z" fill="#A12B52"/>
<path d="M41.8004 0C38.1715 0 35.2457 2.92214 35.2457 6.54649V25.5064C35.2457 26.2992 35.2003 27.0921 35.1096 27.9302C35.0189 28.7457 34.7921 29.4932 34.4292 30.1728C34.0663 30.8523 33.522 31.4186 32.7962 31.8717C32.0704 32.3247 31.0271 32.5512 29.7116 32.5512C28.3961 32.5512 27.3528 32.3247 26.6271 31.8717C25.9013 31.4186 25.3569 30.8523 24.994 30.1728C24.6312 29.4932 24.4043 28.7457 24.3136 27.9302C24.2229 27.1147 24.1775 26.2992 24.1775 25.5064V5.95753C20.5486 5.95753 17.6228 8.87967 17.6228 12.504V25.4837C17.6228 26.2766 17.5775 27.0694 17.4868 27.9075C17.396 28.723 17.1692 29.4705 16.8063 30.1501C16.4435 30.8297 15.8991 31.396 15.1733 31.849C14.4476 32.3021 13.4042 32.5286 12.0888 32.5286C10.7733 32.5286 9.72999 32.3021 9.00421 31.849C8.27843 31.396 7.73409 30.8297 7.3712 30.1501C7.00831 29.4705 6.78151 28.723 6.69078 27.9075C6.60006 27.0921 6.5547 26.2766 6.5547 25.4837V11.9151C2.9258 11.9151 0 14.8599 0 18.4616V25.4837C0 27.3412 0.181445 28.9722 0.544335 30.3766C0.907225 31.7811 1.36084 32.9816 1.90517 34.001C2.47219 35.0203 3.10725 35.8585 3.83302 36.538C4.5588 37.2176 5.30727 37.7612 6.05573 38.1916C7.80213 39.1883 9.82071 39.732 12.0661 39.7999C14.3568 39.732 16.3754 39.1883 18.1445 38.1916C18.893 37.7612 19.6414 37.2176 20.3445 36.538C20.526 36.3568 20.7074 36.1756 20.8889 35.9717C21.0703 36.1756 21.2517 36.3568 21.4332 36.538C22.159 37.2176 22.9074 37.7612 23.6559 38.1916C25.4023 39.1883 27.4209 39.732 29.6663 39.7999C31.957 39.732 33.9756 39.1883 35.7447 38.1916C36.4931 37.7612 37.2416 37.2176 37.9447 36.538C38.6705 35.8585 39.3055 35.0203 39.8725 34.001C40.4395 32.9816 40.8932 31.7811 41.2334 30.3766C41.5736 28.9722 41.7323 27.3639 41.7323 25.4837L41.8004 0Z" fill="#A12B52"/>
<path d="M90.4276 38.1461C90.2462 38.6671 89.7699 39.0295 89.2029 39.0295H85.7554H82.308C81.7636 39.0295 81.2647 38.6671 81.0832 38.1461L73.077 13.6138C72.8048 12.7756 73.4172 11.9375 74.3017 11.9375H78.1801C78.7244 11.9375 79.2234 12.2999 79.4048 12.8209L84.5307 28.4736C84.9162 29.6515 86.5719 29.6515 86.9575 28.4736L89.906 19.458L94.8503 4.32635C95.939 1.04178 99.4772 -0.770399 102.766 0.316907L90.4276 38.1461Z" fill="#EF4273"/>
<path d="M122.044 17.0568C121.454 16.0374 120.774 15.1993 120.003 14.5197C119.232 13.8402 118.461 13.2965 117.667 12.8661C115.807 11.8694 113.698 11.3258 111.362 11.2578C109.116 11.2578 107.211 11.5976 105.646 12.2545C104.081 12.9114 102.788 13.8628 101.768 15.086C100.747 16.3093 100.021 17.8043 99.5449 19.5712C99.0913 21.3381 98.8418 23.3314 98.8418 25.574V46.4141C98.8418 47.2975 99.5449 47.9997 100.429 47.9997H103.605C104.489 47.9997 105.192 47.2975 105.192 46.4141V35.9261C105.533 36.4018 105.918 36.8095 106.326 37.172C107.256 37.9648 108.164 38.5311 109.048 38.8709C110.046 39.256 111.067 39.4825 112.133 39.5504C112.223 39.5504 112.291 39.5504 112.382 39.5504C114.537 39.5051 116.465 39.0068 118.143 38.0554C118.891 37.625 119.617 37.0813 120.32 36.4244C121.023 35.7675 121.636 34.9294 122.203 33.9327C122.747 32.936 123.201 31.7354 123.541 30.3536C123.881 28.9718 124.04 27.3409 124.04 25.4834C124.04 23.6259 123.859 22.0176 123.473 20.6132C123.11 19.254 122.634 18.0535 122.044 17.0568ZM117.258 28.0884C117.122 29.0172 116.828 29.8779 116.397 30.6708C115.966 31.4636 115.353 32.1432 114.559 32.6642C113.766 33.2078 112.7 33.457 111.384 33.457C110.069 33.457 109.003 33.1852 108.209 32.6642C107.415 32.1205 106.78 31.4636 106.326 30.6708C105.873 29.8779 105.578 29.0172 105.442 28.0884C105.306 27.1597 105.238 26.2989 105.238 25.5287C105.238 24.5773 105.306 23.6259 105.419 22.6745C105.555 21.7231 105.805 20.885 106.213 20.1148C106.621 19.3447 107.234 18.733 108.05 18.28C108.867 17.827 109.978 17.5778 111.362 17.5778C112.677 17.5778 113.743 17.8496 114.537 18.3706C115.331 18.9143 115.966 19.5712 116.374 20.364C116.805 21.1568 117.077 22.0403 117.236 22.9464C117.372 23.8751 117.44 24.7359 117.44 25.5061C117.463 26.2989 117.395 27.1597 117.258 28.0884Z" fill="#EF4273"/>
<path d="M148.944 19.503C148.399 17.8721 147.696 16.5356 146.834 15.4709C145.973 14.4063 145.043 13.5908 144.045 13.0245C143.047 12.4582 142.094 12.0278 141.21 11.7786C140.325 11.5068 139.531 11.3709 138.873 11.3256C138.216 11.2803 137.83 11.2803 137.717 11.2803C137.581 11.2803 137.172 11.3029 136.537 11.3256C135.902 11.3709 135.131 11.5068 134.247 11.7786C133.362 12.0504 132.409 12.4582 131.412 13.0245C130.414 13.5908 129.484 14.4063 128.622 15.4709C127.76 16.5356 127.057 17.8947 126.513 19.503C125.968 21.134 125.673 23.1274 125.673 25.5059V37.6021C125.673 38.395 126.308 39.0292 127.102 39.0292H130.754C131.548 39.0292 132.183 38.395 132.183 37.6021V25.5285C132.183 24.7357 132.251 23.9429 132.387 23.1274C132.523 22.3119 132.795 21.5644 133.181 20.8848C133.566 20.2052 134.133 19.6389 134.836 19.2085C135.539 18.7555 136.492 18.5516 137.671 18.5516C138.851 18.5516 139.803 18.7782 140.506 19.2085C141.21 19.6616 141.777 20.2052 142.162 20.8848C142.548 21.5644 142.82 22.3119 142.956 23.1274C143.092 23.9429 143.16 24.7583 143.16 25.5285V37.6021C143.16 38.395 143.795 39.0292 144.589 39.0292H148.331C149.125 39.0292 149.76 38.395 149.76 37.6021V25.5285C149.76 23.1274 149.488 21.134 148.944 19.503Z" fill="#EF4273"/>
</svg>

<svg width="150" height="48" fill="none" xmlns="http://www.w3.org/2000/svg"><path d="M69.63 26.684H53.162c-.748 0-1.315.657-1.18 1.382l.069.476c.113.634.295 1.246.544 1.857.386.93.998 1.745 1.837 2.47.817.724 1.974 1.064 3.448 1.064s2.608-.362 3.447-1.065a7.034 7.034 0 001.542-1.88 1.19 1.19 0 011.021-.589h4.604c.84 0 1.406.838 1.134 1.609a9.168 9.168 0 01-.748 1.653c-.522.929-1.089 1.745-1.724 2.424-.635.68-1.293 1.246-2.019 1.699-.725.453-1.406.816-2.086 1.11-1.656.634-3.38.974-5.217.974-2.404-.045-4.536-.544-6.396-1.495a13.646 13.646 0 01-2.336-1.631c-.77-.657-1.451-1.495-2.04-2.492-.59-.996-1.067-2.197-1.43-3.602-.363-1.404-.544-3.012-.544-4.892 0-1.858.181-3.489.544-4.893.363-1.405.84-2.605 1.43-3.625.589-1.019 1.27-1.857 2.04-2.537a12.642 12.642 0 012.336-1.653c1.838-.997 3.947-1.518 6.328-1.608h.136c1.95.09 3.765.498 5.466 1.223a12.03 12.03 0 012.178 1.268 10.815 10.815 0 012.041 1.926c.635.77 1.18 1.676 1.656 2.74a13.968 13.968 0 011.043 3.67c.068.544.136 1.088.181 1.654.046.566.091 1.178.091 1.835.023-.046.159.928-.93.928zm-7.848-4.462c.862 0 1.474-.906 1.089-1.676 0 0 0-.023-.023-.023a5.642 5.642 0 00-1.112-1.563 5.588 5.588 0 00-1.655-1.11c-.635-.272-1.406-.408-2.246-.408-.861 0-1.61.136-2.245.408-.635.272-1.202.634-1.656 1.11a5.88 5.88 0 00-1.134 1.563v.023c-.385.793.227 1.699 1.089 1.699h7.893v-.023zM41.8 0a6.54 6.54 0 00-6.554 6.546v18.96c0 .793-.046 1.586-.136 2.424a6.158 6.158 0 01-.68 2.243c-.364.68-.908 1.246-1.634 1.699-.726.453-1.769.68-3.084.68-1.316 0-2.36-.227-3.085-.68-.726-.453-1.27-1.02-1.633-1.7a6.16 6.16 0 01-.68-2.242 22.017 22.017 0 01-.137-2.424V5.958a6.54 6.54 0 00-6.554 6.546v12.98c0 .793-.046 1.585-.136 2.423a6.16 6.16 0 01-.68 2.243c-.363.68-.908 1.246-1.634 1.699-.725.453-1.769.68-3.084.68-1.316 0-2.359-.227-3.085-.68-.726-.453-1.27-1.02-1.633-1.699a6.16 6.16 0 01-.68-2.242 22.01 22.01 0 01-.136-2.424V11.915A6.554 6.554 0 000 18.462v7.022c0 1.857.181 3.488.544 4.893.363 1.404.817 2.605 1.361 3.624.567 1.02 1.202 1.858 1.928 2.537a12.01 12.01 0 002.223 1.654c1.746.996 3.765 1.54 6.01 1.608 2.29-.068 4.31-.612 6.079-1.608a11.18 11.18 0 002.744-2.22c.181.204.363.385.544.566.726.68 1.474 1.223 2.223 1.654 1.746.996 3.765 1.54 6.01 1.608 2.291-.068 4.31-.612 6.079-1.608.748-.43 1.497-.974 2.2-1.654.725-.68 1.36-1.518 1.928-2.537.567-1.02 1.02-2.22 1.36-3.624.34-1.405.5-3.013.5-4.893L41.8 0z" fill="#A12B52"/><path d="M90.428 38.146a1.294 1.294 0 01-1.225.883h-6.895a1.316 1.316 0 01-1.225-.883l-8.006-24.532a1.274 1.274 0 011.225-1.677h3.878c.544 0 1.043.363 1.225.884l5.126 15.653c.385 1.177 2.04 1.177 2.426 0l2.949-9.016L94.85 4.326c1.089-3.284 4.627-5.096 7.916-4.01l-12.338 37.83zm31.616-21.089c-.59-1.02-1.27-1.858-2.041-2.537a12.633 12.633 0 00-2.336-1.654c-1.86-.997-3.969-1.54-6.305-1.608-2.246 0-4.151.34-5.716.997-1.565.656-2.858 1.608-3.878 2.831-1.021 1.223-1.747 2.718-2.223 4.485-.454 1.767-.703 3.76-.703 6.003v20.84c0 .883.703 1.586 1.587 1.586h3.176c.884 0 1.587-.703 1.587-1.586V35.926c.341.476.726.883 1.134 1.246.93.793 1.838 1.36 2.722 1.699.998.385 2.019.611 3.085.68h.249c2.155-.046 4.083-.544 5.761-1.496a11.89 11.89 0 002.177-1.63c.703-.657 1.316-1.496 1.883-2.492.544-.997.998-2.198 1.338-3.58.34-1.381.499-3.012.499-4.87 0-1.857-.181-3.465-.567-4.87-.363-1.359-.839-2.56-1.429-3.556zm-4.786 11.031a7.71 7.71 0 01-.861 2.583 5.516 5.516 0 01-1.838 1.993c-.793.544-1.859.793-3.175.793-1.315 0-2.381-.272-3.175-.793-.794-.544-1.429-1.2-1.883-1.993a7.285 7.285 0 01-.884-2.583 17.852 17.852 0 01-.204-2.56c0-.95.068-1.902.181-2.854.136-.95.386-1.789.794-2.56.408-.77 1.021-1.381 1.837-1.834.817-.453 1.928-.702 3.312-.702 1.315 0 2.381.272 3.175.793.794.543 1.429 1.2 1.837 1.993.431.793.703 1.676.862 2.582.136.93.204 1.79.204 2.56.023.793-.045 1.654-.182 2.582zm31.686-8.585c-.545-1.63-1.248-2.967-2.11-4.032-.861-1.065-1.791-1.88-2.789-2.447-.998-.566-1.951-.996-2.835-1.245a10.503 10.503 0 00-2.337-.453c-.657-.046-1.043-.046-1.156-.046-.136 0-.545.023-1.18.046a10.39 10.39 0 00-2.29.453c-.885.271-1.838.68-2.835 1.245-.998.567-1.928 1.382-2.79 2.447-.862 1.065-1.565 2.424-2.109 4.032-.545 1.631-.84 3.624-.84 6.003v12.096c0 .793.635 1.427 1.429 1.427h3.652c.794 0 1.429-.634 1.429-1.427V25.53c0-.793.068-1.586.204-2.402a6.765 6.765 0 01.794-2.242c.385-.68.952-1.246 1.655-1.677.703-.452 1.656-.656 2.835-.656 1.18 0 2.132.226 2.835.657.704.453 1.271.996 1.656 1.676.386.68.658 1.427.794 2.242.136.816.204 1.631.204 2.402v12.073c0 .793.635 1.427 1.429 1.427h3.742c.794 0 1.429-.634 1.429-1.427V25.53c0-2.402-.272-4.395-.816-6.026z" fill="#EF4273"/></svg>
